lib/flags/tv-tuvalu.svg

<svg xmlns="http://www.w3.org/2000/svg" fill="none" aria-hidden="true" viewBox="0 0 42 30"><g id="Country=TV - Tuvalu, Size=sm (36x24)" filter="url(#filter0_dd_91_24400)"><g clip-path="url(#clip0_91_24400)"><g id="flag"><mask id="mask0_91_24400" width="36" height="24" x="3" y="2" maskUnits="userSpaceOnUse" style="mask-type:alpha"><rect id="mask" width="36" height="24" x="3" y="2" fill="white"/></mask><g mask="url(#mask0_91_24400)"><g id="contents"><path id="background" fill="#00B4FF" fill-rule="evenodd" d="M3 2V26H39V2H3Z" clip-rule="evenodd"/><mask id="mask1_91_24400" width="36" height="24" x="3" y="2" maskUnits="userSpaceOnUse" style="mask-type:alpha"><path id="background_2" fill="white" fill-rule="evenodd" d="M3 2V26H39V2H3Z" clip-rule="evenodd"/></mask><g mask="url(#mask1_91_24400)"><g id="gb - large"><g id="flag_2"><rect id="mask_2" width="20.25" height="14" x="3" y="2" fill="#2B409A"/><mask id="mask2_91_24400" width="21" height="14" x="3" y="2" maskUnits="userSpaceOnUse" style="mask-type:alpha"><rect id="mask_3" width="20.25" height="14" x="3" y="2" fill="white"/></mask><g mask="url(#mask2_91_24400)"><g id="contents_2"><g id="stripe"><path id="white" fill="#F7FCFF" d="M0.745117 14.9996L5.20119 16.7368L23.351 3.88854L25.7015 1.30701L20.9364 0.726383L13.5335 6.26307L7.57493 9.99351L0.745117 14.9996Z"/><path id="red" fill="#F50100" d="M1.35498 16.217L3.62514 17.2251L24.8573 1.06738H21.6697L1.35498 16.217Z"/></g><g id="stripe_2"><path id="white_2" fill="#F7FCFF" d="M25.5049 14.9996L21.0488 16.7368L2.89897 3.88854L0.548492 1.30701L5.31362 0.726383L12.7165 6.26307L18.6751 9.99351L25.5049 14.9996Z"/><path id="red_2" fill="#F50100" d="M25.353 15.8732L23.0829 16.8813L14.042 9.96339L11.3616 9.19046L0.322518 1.31593H3.51009L14.5429 9.00356L17.4735 9.93038L25.353 15.8732Z"/></g><g id="cross"><g id="red_3"><mask id="path-11-outside-1_91_24400" width="24" height="18" x="1" y="0" fill="black" maskUnits="userSpaceOnUse"><rect width="24" height="18" x="1" fill="white"/><path fill-rule="evenodd" d="M14.2326 2H11.9826V8H3V10H11.9826V16H14.2326V10H23.25V8H14.2326V2Z" clip-rule="evenodd"/></mask><path fill="#F50100" fill-rule="evenodd" d="M14.2326 2H11.9826V8H3V10H11.9826V16H14.2326V10H23.25V8H14.2326V2Z" clip-rule="evenodd"/><path fill="#F7FCFF" d="M11.9826 2V0.5H10.4826V2H11.9826ZM14.2326 2H15.7326V0.5H14.2326V2ZM11.9826 8V9.5H13.4826V8H11.9826ZM3 8V6.5H1.5V8H3ZM3 10H1.5V11.5H3V10ZM11.9826 10H13.4826V8.5H11.9826V10ZM11.9826 16H10.4826V17.5H11.9826V16ZM14.2326 16V17.5H15.7326V16H14.2326ZM14.2326 10V8.5H12.7326V10H14.2326ZM23.25 10V11.5H24.75V10H23.25ZM23.25 8H24.75V6.5H23.25V8ZM14.2326 8H12.7326V9.5H14.2326V8ZM11.9826 3.5H14.2326V0.5H11.9826V3.5ZM13.4826 8V2H10.4826V8H13.4826ZM3 9.5H11.9826V6.5H3V9.5ZM4.5 10V8H1.5V10H4.5ZM11.9826 8.5H3V11.5H11.9826V8.5ZM13.4826 16V10H10.4826V16H13.4826ZM14.2326 14.5H11.9826V17.5H14.2326V14.5ZM12.7326 10V16H15.7326V10H12.7326ZM23.25 8.5H14.2326V11.5H23.25V8.5ZM21.75 8V10H24.75V8H21.75ZM14.2326 9.5H23.25V6.5H14.2326V9.5ZM12.7326 2V8H15.7326V2H12.7326Z" mask="url(#path-11-outside-1_91_24400)"/></g></g></g></g></g></g><g id="mark 2"><path id="Combined Shape" fill="#FFD018" fill-rule="evenodd" d="M33.2139 12.6848L33.897 11.5594L35.3956 11.5196L34.2353 10.6582L34.6353 9.49558L33.635 10.0298L32.3705 9.34816L32.4929 10.6398L31.3599 11.2449L32.8307 11.4084L33.2139 12.6848ZM29.397 13.5594L28.7139 14.6848L28.3307 13.4084L26.8599 13.2449L27.9929 12.6398L27.8705 11.3482L29.135 12.0298L30.1353 11.4956L29.7353 12.6582L30.8956 13.5196L29.397 13.5594ZM26.4639 16.6848L27.147 15.5594L28.6456 15.5196L27.4853 14.6582L27.8853 13.4956L26.885 14.0298L25.6205 13.3482L25.7429 14.6398L24.6099 15.2449L26.0807 15.4084L26.4639 16.6848ZM21.9639 20.6848L22.647 19.5594L24.1456 19.5196L22.9853 18.6582L23.3853 17.4956L22.385 18.0298L21.1205 17.3482L21.2429 18.6398L20.1099 19.2449L21.5807 19.4084L21.9639 20.6848ZM17.596 23.7355L16.3583 24.3875L16.7695 23.118L15.6035 22.3046H16.9253L17.5688 21.1413L18.2577 22.3046H19.4246L18.4081 23.118L18.9036 24.3875L17.596 23.7355ZM22.647 23.5594L21.9639 24.6848L21.5807 23.4084L20.1099 23.2449L21.2429 22.6398L21.1205 21.3482L22.385 22.0298L23.3853 21.4956L22.9853 22.6582L24.1456 23.5196L22.647 23.5594ZM27.147 21.5594L26.4639 22.6848L26.0807 21.4084L24.6099 21.2449L25.7429 20.6398L25.6205 19.3482L26.885 20.0298L27.8853 19.4956L27.4853 20.6582L28.6456 21.5196L27.147 21.5594ZM31.647 19.5594L30.9639 20.6848L30.5807 19.4084L29.1099 19.2449L30.2429 18.6398L30.1205 17.3482L31.385 18.0298L32.3853 17.4956L31.9853 18.6582L33.1456 19.5196L31.647 19.5594ZM33.2139 18.6848L33.897 17.5594L35.3956 17.5196L34.2353 16.6582L34.6353 15.4956L33.635 16.0298L32.3705 15.3482L32.4929 16.6398L31.3599 17.2449L32.8307 17.4084L33.2139 18.6848Z" clip-rule="evenodd"/></g></g></g></g></g></g></g><defs><filter id="filter0_dd_91_24400" width="42" height="30" x="0" y="0" color-interpolation-filters="sRGB" filterUnits="userSpaceOnUse"><feFlood flood-opacity="0" result="BackgroundImageFix"/><feColorMatrix in="SourceAlpha" result="hardAlpha" values="0 0 0 0 0 0 0 0 0 0 0 0 0 0 0 0 0 0 127 0"/><feOffset dy="1"/><feGaussianBlur stdDeviation="1"/><feColorMatrix values="0 0 0 0 0.0627451 0 0 0 0 0.0941176 0 0 0 0 0.156863 0 0 0 0.06 0"/><feBlend in2="BackgroundImageFix" result="effect1_dropShadow_91_24400"/><feColorMatrix in="SourceAlpha" result="hardAlpha" values="0 0 0 0 0 0 0 0 0 0 0 0 0 0 0 0 0 0 127 0"/><feOffset dy="1"/><feGaussianBlur stdDeviation="1.5"/><feColorMatrix values="0 0 0 0 0.0627451 0 0 0 0 0.0941176 0 0 0 0 0.156863 0 0 0 0.1 0"/><feBlend in2="effect1_dropShadow_91_24400" result="effect2_dropShadow_91_24400"/><feBlend in="SourceGraphic" in2="effect2_dropShadow_91_24400" result="shape"/></filter><clipPath id="clip0_91_24400"><rect width="36" height="24" x="3" y="2" fill="white" rx="2"/></clipPath></defs></svg>

<svg xmlns="http://www.w3.org/2000/svg" fill="none" aria-hidden="true" viewBox="0 0 42 30"><g filter="url(#a)"><g clip-path="url(#b)"><mask id="c" width="36" height="24" x="3" y="2" maskUnits="userSpaceOnUse" style="mask-type:alpha"><path fill="#fff" d="M3 2h36v24H3z"/></mask><g mask="url(#c)"><path fill="#00B4FF" fill-rule="evenodd" d="M3 2v24h36V2H3Z" clip-rule="evenodd"/><mask id="d" width="36" height="24" x="3" y="2" maskUnits="userSpaceOnUse" style="mask-type:alpha"><path fill="#fff" fill-rule="evenodd" d="M3 2v24h36V2H3Z" clip-rule="evenodd"/></mask><g mask="url(#d)"><path fill="#2B409A" d="M3 2h20.25v14H3z"/><mask id="e" width="21" height="14" x="3" y="2" maskUnits="userSpaceOnUse" style="mask-type:alpha"><path fill="#fff" d="M3 2h20.25v14H3z"/></mask><g mask="url(#e)"><path fill="#F7FCFF" d="m.745 15 4.456 1.737 18.15-12.848 2.35-2.582-4.765-.58-7.402 5.536-5.96 3.73L.746 15Z"/><path fill="#F50100" d="m1.355 16.217 2.27 1.008L24.857 1.067H21.67L1.355 16.217Z"/><path fill="#F7FCFF" d="m25.505 15-4.456 1.737L2.899 3.889.549 1.307l4.765-.58 7.402 5.536 5.96 3.73L25.504 15Z"/><path fill="#F50100" d="m25.353 15.873-2.27 1.008-9.041-6.918-2.68-.773L.322 1.316H3.51l11.033 7.688 2.93.926 7.88 5.943Z"/><mask id="f" width="24" height="18" x="1" y="0" fill="#000" maskUnits="userSpaceOnUse"><path fill="#fff" d="M1 0h24v18H1z"/><path fill-rule="evenodd" d="M14.233 2h-2.25v6H3v2h8.983v6h2.25v-6h9.017V8h-9.017V2Z" clip-rule="evenodd"/></mask><path fill="#F50100" fill-rule="evenodd" d="M14.233 2h-2.25v6H3v2h8.983v6h2.25v-6h9.017V8h-9.017V2Z" clip-rule="evenodd"/><path fill="#F7FCFF" d="M11.983 2V.5h-1.5V2h1.5Zm2.25 0h1.5V.5h-1.5V2Zm-2.25 6v1.5h1.5V8h-1.5ZM3 8V6.5H1.5V8H3Zm0 2H1.5v1.5H3V10Zm8.983 0h1.5V8.5h-1.5V10Zm0 6h-1.5v1.5h1.5V16Zm2.25 0v1.5h1.5V16h-1.5Zm0-6V8.5h-1.5V10h1.5Zm9.017 0v1.5h1.5V10h-1.5Zm0-2h1.5V6.5h-1.5V8Zm-9.017 0h-1.5v1.5h1.5V8Zm-2.25-4.5h2.25v-3h-2.25v3Zm1.5 4.5V2h-3v6h3ZM3 9.5h8.983v-3H3v3Zm1.5.5V8h-3v2h3Zm7.483-1.5H3v3h8.983v-3Zm1.5 7.5v-6h-3v6h3Zm.75-1.5h-2.25v3h2.25v-3Zm-1.5-4.5v6h3v-6h-3ZM23.25 8.5h-9.017v3h9.017v-3Zm-1.5-.5v2h3V8h-3Zm-7.517 1.5h9.017v-3h-9.017v3Zm-1.5-7.5v6h3V2h-3Z" mask="url(#f)"/></g><path fill="#FFD018" fill-rule="evenodd" d="m33.214 12.685.683-1.126 1.499-.04-1.16-.86.4-1.163-1.001.534-1.264-.682.122 1.292-1.133.605 1.47.163.384 1.277Zm-3.817.874-.683 1.126-.383-1.277-1.471-.163 1.133-.605-.122-1.292 1.264.682 1-.534-.4 1.162 1.16.862-1.498.04Zm-2.933 3.126.683-1.126 1.499-.04-1.16-.86.4-1.163-1.001.534-1.265-.682.123 1.292-1.133.605 1.47.163.384 1.277Zm-4.5 4 .683-1.126 1.499-.04-1.16-.86.4-1.163-1.001.534-1.265-.682.123 1.292-1.133.605 1.47.163.384 1.277Zm-4.368 3.05-1.238.652.412-1.269-1.166-.813h1.321l.644-1.164.689 1.164h1.167l-1.017.813.496 1.27-1.308-.653Zm5.051-.176-.683 1.126-.383-1.277-1.471-.163 1.133-.605-.122-1.292 1.264.682 1-.534-.4 1.162 1.16.862-1.498.04Zm4.5-2-.683 1.126-.383-1.277-1.471-.163 1.133-.605-.122-1.292 1.264.682 1-.534-.4 1.162 1.16.862-1.498.04Zm4.5-2-.683 1.126-.383-1.277-1.471-.163 1.133-.605-.122-1.292 1.264.682 1-.534-.4 1.162 1.16.862-1.498.04Zm1.567-.874.683-1.126 1.499-.04-1.16-.86.4-1.163-1.001.534-1.264-.682.122 1.292-1.133.605 1.47.163.384 1.277Z" clip-rule="evenodd"/></g></g></g></g><defs><clipPath id="b"><rect width="36" height="24" x="3" y="2" fill="#fff" rx="2"/></clipPath><filter id="a" width="42" height="30" x="0" y="0" color-interpolation-filters="sRGB" filterUnits="userSpaceOnUse"><feFlood flood-opacity="0" result="BackgroundImageFix"/><feColorMatrix in="SourceAlpha" result="hardAlpha" values="0 0 0 0 0 0 0 0 0 0 0 0 0 0 0 0 0 0 127 0"/><feOffset dy="1"/><feGaussianBlur stdDeviation="1"/><feColorMatrix values="0 0 0 0 0.0627451 0 0 0 0 0.0941176 0 0 0 0 0.156863 0 0 0 0.06 0"/><feBlend in2="BackgroundImageFix" result="effect1_dropShadow_91_24400"/><feColorMatrix in="SourceAlpha" result="hardAlpha" values="0 0 0 0 0 0 0 0 0 0 0 0 0 0 0 0 0 0 127 0"/><feOffset dy="1"/><feGaussianBlur stdDeviation="1.5"/><feColorMatrix values="0 0 0 0 0.0627451 0 0 0 0 0.0941176 0 0 0 0 0.156863 0 0 0 0.1 0"/><feBlend in2="effect1_dropShadow_91_24400" result="effect2_dropShadow_91_24400"/><feBlend in="SourceGraphic" in2="effect2_dropShadow_91_24400" result="shape"/></filter></defs></svg>
